!!!!SEGMENT: 065-1-BH-003-violoncello.krn
!!!COM: Chopin, Fryderyk
!!!OTL: Sonata
!!!OPS: Op. 65
!!!PTL: Sonate pour Piano et Violoncelle
!!!PPR: Breitkopf & Härtel
!!!OMV: 3
!!!PPP: Leipzig
!!!AGN: Sonata
!!!NIFC-rismID: PL-Wbfc 4692/n
!!!NIFC-shelfmark: PL-Wbfc 4692/n
!!!system-decoration: s1{(s2,s3)}
!!!OMD: Cantabile.
**kern	**dynam
*part1	*part1
*I"LARGO.	*
*staff1	*
*clefF4	*
*k[b-e-]	*
*M3/2	*
=1	=1
*clefG2	*
!LO:TX:t=P:"Cantabile." nie wyświetla się.:problem	!
2d	.
8e-L	.
8d	.
8c	.
8gJ	.
(<4.f	.
8e-)	.
=2	=2
(<4.d	.
8B-)	.
(<4B-	.
8qqc/L	.
8qqB-	.
8qqA	.
8qqB-J	.
8.dL	.
16cJk	.
4c)	.
4r	.
*clefF4	*
=3	=3
!	!LO:DY:a
(<2BB-	p
4.EE-	.
8CC)	.
2FF	.
=4	=4
2GG	.
2CC	.
4FF	.
4r	.
*clefG2	*
=5	=5
2e-	.
(<8fL	.
8e-	.
8d	.
8a-XJ)	.
(<4.g	.
8f)	.
!!LO:LB:g=original
=6	=6
(<4.e-	.
8c)	.
(<4d	.
8qqe-/L	.
8qqd	.
8qqc	.
8qqdJ	.
8.fL	.
16e-Jk	.
2e-)	.
=7	=7
(>2g	pp
*clefF4	*
2G	.
2C)	.
=8	=8
(<2FF	.
2GG	.
2AA	.
=9	=9
4BB-)	.
4r	.
*clefG2	*
(<8gL	.
8f	.
8e-	.
8cJ)	.
!	!LO:HP:a
(<4.B-	<
8a-X	.
.	[
=10	=10
4g)	.
4r	.
*clefF4	*
!LO:TX:i:t=poco a poco cresc.:dur=5h:ext=s:problem:text with extention lines	!
(<2GG	.
2AA)	.
=11	=11
(<2BB-	.
2C	.
2C#X	.
!!LO:LB:g=original
=12	=12
!LO:TX:t=P:slur ends up:problem	!
2D)	.
!	!LO:DY:rj
(>8AL	p
8B-	.
8A	.
8B-J)	.
(>4.c	.
8c'>)	.
=13	=13
[>2c	<
(>8cL]	.
8d	.
8c	.
8dJ)	.
(>4.e-	.
8d)	.
=14	=14
(>2c#X^<	>
8e-L	p
8d	.
8cn	.
8gJ)	.
(>4.f	.
8e-)	.
=15	=15
(>4.d	.
8B-)	.
(>4B-	.
8qqc/L	.
8qqB-/	.
8qqA/	.
8qqB-/J	.
8.dL	.
16cJk	.
4c)	.
4r	.
=16	=16
!	!LO:DY:a
(<2AA-X	f
2DD-X	.
2EE-)	.
!!LO:LB:g=original
=17	=17
(<4AA-X	.
4FF	.
4CC	.
4DDn)	.
4EE-	.
4r	.
=18	=18
2B-	p
(>8cL	.
8B-	.
8G	.
8FJ)	.
(>4.En	.
8c)	.
=19	=19
!LO:TX:b:t=cresc. _:problem:dynamics with extention lines	!
!	!LO:HP:b:i:t=cresc.:ext=ud
2c	<
(>8dL	.
8c	.
8An	.
8GJ)	.
4.F#X	.
8d	.
=20	=20
2d	.
(>4d	.
8cL	.
8dJ)	.
4e-	.
16qqf/LL	.
16qqe-/JJ	.
(>8dL	.
8e-J)	[[
=21	=21
(>8gL	f
8f	.
8e-	.
8AJ)	.
(>8dL	.
8c	.
8B-)	.
(>8F#XJ	.
8AL)	.
(>8G	.
8A)	.
8qc/	.
(>8B-J	.
!!LO:LB:g=original
=22	=22
!LO:TX:t=P:the slur has no ending:problem	!
2Fn)	.
2G	.
(>2F	.
=23	=23
2d)	.
(>8cL	.
8B-	.
8A	.
8B-J)	.
2c	.
.	.
=24	=24
!	!LO:DY:rj
(>2d	p
2e-	.
2An)	.
=25	=25
[>2B-	pp
(>8B-L]	.
8c	.
8en	.
8gJ)	.
(>8gL	.
8f	.
8e-X	.
8AJ)	.
=26	=26
(>2F	.
2G	.
2F)	.
=27	=27
(<8qF/	.
!LO:N:vis=1	!
1.B-;>)	.
==	==
*-	*-
!!title: @{OTL}; @{OPS} @{ONM} publisher: @{PPR}
!!!RDF**kern: > = above
!!!RDF**kern: < = below
!!!RDF**kern: N = linked
!!!RDF**dynam: < = "cresc." fontstyle= "italic"
!!!RDF**dynam: > = "dim." fontstyle= "italic"
!!!ENC: Jędrzej Mróz
!!!END: 2020-03-24
!!!EED: Mateusz Mrugas
!!!EST: 2020-04-01
